X:38
C:Page 19
T:Capt. Mackintosh’s Fancy. MBe.38
S:Matthew Betham MS, Towcett Cumbria, 1815
O:England;Cumbria;Towcett
Z:VMP – Hugh Taylor, 2012
T:Captain Macintosh, aka. MBe.38
T:Captain McIntosh, aka. MBe.38
M:2/4
L:1/8
Q:1/4=100
R:.Reel
K:D
A|d>ed>f|dAAA|d>ed>f|a3 f|
bgge|affd|efge|dcBA|
d>ed>f|dAAA|d>ed>f|a3 f|
bgge|affd|geec|d2:|
|:d|a>ba>b|geeg|g>ag>a|f3 d|
(Ad/e/ fd)|B(e/f/ ge)|bgfe|dcBA|
d>ed>f|dAAA|d>ed>f|a3 f|
bgge|affd|geec|d2:|

